img/gema-inferior.svg

<svg width="1160" height="35" viewBox="0 0 1160 35" fill="none" xmlns="http://www.w3.org/2000/svg">
<path d="M1160 0C1126.65 10.3348 1086.76 7.84019 1045.39 8.14697C1004.04 8.45375 962.876 5.83609 921.537 5.22251C887.144 4.7144 851.896 5.66405 820.082 11.2054C776.341 18.8271 738.829 35.0096 691.51 35C624.062 34.9807 571.191 1.65631 504.831 6.74701C479.906 8.66441 457.649 15.9983 432.322 15.7011C398.09 15.2985 370.224 1.02401 336.081 2.13604C310.826 2.95094 291.575 11.9436 267.762 15.5963C245.537 19.0092 220.983 17.5518 197.606 16.0467C164.937 13.9471 132.269 11.8476 99.5923 9.75763C62.2016 7.3417 16.7775 14.323 0 0H1160Z" fill="white"/>
</svg>

<svg xmlns="http://www.w3.org/2000/svg" width="1160" height="35" fill="none" viewBox="0 0 1160 35"><path fill="#fff" d="M1160 0c-44 0-73.24 7.84-114.61 8.147-41.35.307-82.514-2.31-123.853-2.924-34.393-.509-69.641.441-101.455 5.982C776.341 18.827 738.829 35.01 691.51 35c-67.448-.02-120.319-33.344-186.679-28.253-24.925 1.917-47.182 9.251-72.509 8.954-34.232-.402-62.098-14.677-96.241-13.565-25.255.815-44.506 9.808-68.319 13.46-22.225 3.413-46.779 1.956-70.156.45-32.669-2.099-65.337-4.198-98.014-6.288C55.5 6.938 26 0 0 0z"/></svg>
